X:885
T:E Apri la Finestra
T:(Spring song)
C:anon.
O:Italy
Z:Transcribed by Frank Nordberg - http://www.musicaviva.com
F:http://abc.musicaviva.com/tunes/italy/e-apri-la-finestra.abc
M:3/4
L:1/4
K:D
A|"D"d2e|"D"f2a|"D"d3|"D"d z A|"D"d2e|"D"f2a|"A7"e3-|"A7"e z A|
"A7"e2e|"A7"e2d|"A7"c3|"A7"c z a|"A7"(c'b)a|"A7"(gf)e|"D"d3-|"D"d z:|
W:
W:
W:  From Musica Viva - http://www.musicaviva.com
W:  the Internet center for free sheet music downloads.
